src/assets/icons/wrench.svg

<svg width="14" height="14" viewBox="0 0 14 14" fill="none" xmlns="http://www.w3.org/2000/svg">
<g id="wrench">
<g clip-path="url(#clip0_156_4629)">
<path id="Vector" d="M2.2925 14H2.2909C1.67889 14 1.10368 13.7608 0.670868 13.328C-0.222752 12.4344 -0.223552 10.9807 0.669267 10.0879L5.07577 5.68142C4.67256 4.13018 5.11097 2.45574 6.24379 1.32292C7.38782 0.178892 9.06865 -0.267518 10.6287 0.158892C10.8351 0.214893 10.9959 0.376497 11.0503 0.583701C11.1047 0.790906 11.0455 1.01091 10.8943 1.16211L8.93345 3.12216L9.35106 4.64859L10.8775 5.0662L12.8375 3.10616C12.9887 2.95575 13.2095 2.89415 13.4159 2.95095C13.6224 3.00536 13.7848 3.16616 13.8408 3.37176C14.2672 4.9318 13.8216 6.61184 12.6767 7.75666C11.5439 8.88869 9.86947 9.3255 8.31824 8.92389L3.91094 13.3304C3.47893 13.7624 2.90452 14 2.2925 14ZM9.14546 1.21412C8.38144 1.28212 7.65022 1.61412 7.09181 2.17174C6.17979 3.08456 5.88458 4.41739 6.32059 5.65181C6.3974 5.86942 6.34219 6.11262 6.17899 6.27583L1.51809 10.9367C1.09328 11.3615 1.09408 12.0544 1.51969 12.48C1.72609 12.6864 2.0005 12.8 2.2917 12.8H2.2925C2.58371 12.8 2.85732 12.6864 3.06292 12.4816L7.72463 7.82066C7.88863 7.65666 8.13023 7.60226 8.34864 7.67906C9.58387 8.11347 10.9167 7.82066 11.8287 6.90784C12.3871 6.34943 12.7191 5.61821 12.7871 4.8542L11.4799 6.16142C11.3279 6.31343 11.1055 6.37183 10.8975 6.31583L8.70465 5.71661C8.49984 5.66061 8.33984 5.50061 8.28384 5.29661L7.68382 3.10376C7.62702 2.89575 7.68622 2.67335 7.83823 2.52054L9.14546 1.21412Z" fill="black"/>
</g>
</g>
<defs>
<clipPath id="clip0_156_4629">
<rect width="14" height="14" fill="white"/>
</clipPath>
</defs>
</svg>

<svg xmlns="http://www.w3.org/2000/svg" fill="none" viewBox="0 0 14 14"><g clip-path="url(#a)"><path fill="#000" d="M2.293 14H2.29a2.294 2.294 0 0 1-1.622-3.912L5.076 5.68a4.56 4.56 0 0 1 1.168-4.358A4.53 4.53 0 0 1 10.629.159a.601.601 0 0 1 .266 1.003l-1.962 1.96.418 1.527 1.526.417 1.96-1.96a.599.599 0 0 1 1.003.266 4.53 4.53 0 0 1-1.163 4.385c-1.133 1.132-2.808 1.569-4.359 1.167L3.911 13.33a2.27 2.27 0 0 1-1.618.67M9.145 1.214c-.764.068-1.495.4-2.053.958-.912.913-1.207 2.245-.771 3.48a.6.6 0 0 1-.142.624l-4.66 4.66a1.093 1.093 0 0 0 .773 1.864c.292 0 .565-.114.77-.318L7.726 7.82a.6.6 0 0 1 .624-.142c1.235.434 2.568.142 3.48-.771.558-.559.89-1.29.958-2.054L11.48 6.161a.6.6 0 0 1-.582.155l-2.193-.6a.6.6 0 0 1-.421-.42l-.6-2.192a.6.6 0 0 1 .154-.583z"/></g><defs><clipPath id="a"><path fill="#fff" d="M0 0h14v14H0z"/></clipPath></defs></svg>
